proprietary/assets/icons/gebruiksvoorwerpen/koffiezetapparaat.svg

<svg height="64" viewBox="0 0 64 64" width="64" xmlns="http://www.w3.org/2000/svg"><path d="m0 0h64v64h-64z" fill="none"/><path d="m33.99 14.6511c2.5383 1.9495 2.0325 2.2393 2.1045 4.8852.0378 1.2637.3623 2.4229 1.4303 3.3328.5905.496 1.5385.964 2.671 1.0192.4291.0173.4604-.5496.1638-.761l-.0073-.0052c-.9221-.5567-1.5032-1.0619-1.8654-1.5182-1.2196-1.5367.05-2.3176-.8572-4.9088-.5499-1.5708-1.7328-2.4849-3.406-2.8149-.363-.0711-.6422.4572-.2365.7688z"/><path d="m50 56h-2v-48.1648c0-1.1524-.7117-2.1874-1.7949-2.5803-2.4495-.8885-7.3335-2.2549-14.2051-2.2549s-11.7556 1.3664-14.2051 2.2549c-1.0832.3929-1.7949 1.4279-1.7949 2.5803v48.1648h-2c-.5522 0-1 .4477-1 1v4h38v-4c0-.5523-.4478-1-1-1zm-16.5535-44.5322c4.238-2.0159 7.9263.8478 9.7017 4.5801s1.6699 8.4006-2.5681 10.4166-7.9265-.8478-9.7019-4.5801-1.6697-8.4006 2.5683-10.4166zm-11.4465 4.5322c1.1045 0 2 .8954 2 2s-.8955 2-2 2-2-.8954-2-2 .8955-2 2-2zm0 7c1.1045 0 2 .8954 2 2s-.8955 2-2 2-2-.8954-2-2 .8955-2 2-2zm0 7c1.1045 0 2 .8954 2 2s-.8955 2-2 2-2-.8954-2-2 .8955-2 2-2zm14 26 1.8462-12h.1538c.5522 0 1-.4477 1-1s-.4478-1-1-1h-12c-.5522 0-1 .4477-1 1s.4478 1 1 1h.1538l1.8462 12h-7v-17h22v17z"/></svg>

<?xml version="1.0" encoding="utf-8"?>
<!-- Generator: Adobe Illustrator 19.1.0, SVG Export Plug-In . SVG Version: 6.00 Build 0)  -->
<svg version="1.2" baseProfile="tiny" xmlns="http://www.w3.org/2000/svg" xmlns:xlink="http://www.w3.org/1999/xlink" x="0px"
	 y="0px" width="64px" height="64px" viewBox="0 0 64 64" xml:space="preserve">
<g id="Box">
	<rect fill="none" width="64" height="64"/>
</g>
<g id="Icon">
	<g>
		<path d="M33.99,14.6511c2.5383,1.9495,2.0325,2.2393,2.1045,4.8852c0.0378,1.2637,0.3623,2.4229,1.4303,3.3328
			c0.5905,0.496,1.5385,0.964,2.671,1.0192c0.4291,0.0173,0.4604-0.5496,0.1638-0.761l-0.0073-0.0052
			c-0.9221-0.5567-1.5032-1.0619-1.8654-1.5182c-1.2196-1.5367,0.05-2.3176-0.8572-4.9088
			c-0.5499-1.5708-1.7328-2.4849-3.406-2.8149c-0.363-0.0711-0.6422,0.4572-0.2365,0.7688L33.99,14.6511z"/>
		<path d="M50,56h-2V7.8352c0-1.1524-0.7117-2.1874-1.7949-2.5803C43.7556,4.3664,38.8716,3,32,3S20.2444,4.3664,17.7949,5.2549
			C16.7117,5.6478,16,6.6828,16,7.8352V56h-2c-0.5522,0-1,0.4477-1,1v4h38v-4C51,56.4477,50.5522,56,50,56z M33.4465,11.4678
			c4.238-2.0159,7.9263,0.8478,9.7017,4.5801c1.7754,3.7323,1.6699,8.4006-2.5681,10.4166s-7.9265-0.8478-9.7019-4.5801
			C29.1028,18.1521,29.2085,13.4838,33.4465,11.4678z M22,16c1.1045,0,2,0.8954,2,2s-0.8955,2-2,2s-2-0.8954-2-2S20.8955,16,22,16z
			 M22,23c1.1045,0,2,0.8954,2,2s-0.8955,2-2,2s-2-0.8954-2-2S20.8955,23,22,23z M22,30c1.1045,0,2,0.8954,2,2s-0.8955,2-2,2
			s-2-0.8954-2-2S20.8955,30,22,30z M36,56l1.8462-12H38c0.5522,0,1-0.4477,1-1s-0.4478-1-1-1H26c-0.5522,0-1,0.4477-1,1
			s0.4478,1,1,1h0.1538L28,56h-7V39h22v17H36z"/>
	</g>
</g>
</svg>
